public/assets/jsx-dark.svg

<?xml version="1.0" encoding="UTF-8"?>
<!DOCTYPE svg  PUBLIC '-//W3C//DTD SVG 1.1//EN'  'http://www.w3.org/Graphics/SVG/1.1/DTD/svg11.dtd'>
<svg version="1.1" viewBox="0 0 195 202" xmlns="http://www.w3.org/2000/svg" xmlns:xlink="http://www.w3.org/1999/xlink">
<defs>
<path id="o" d="m193.4 51.64l-95.17-49.78-95.17 49.78v99.57l95.17 49.79 95.17-49.79v-99.57z"/>
<path id="l" d="m193.4 51.64l-95.17-49.78-95.17 49.78v99.57l95.17 49.79 95.17-49.79v-99.57z"/>
<path id="g" d="m193.4 51.64l-95.17-49.78-95.17 49.78v99.57l95.17 49.79 95.17-49.79v-99.57z"/>
<path id="d" d="m193.4 51.64l-95.17-49.78-95.17 49.78v99.57l95.17 49.79 95.17-49.79v-99.57z"/>
<path id="h" d="m192.67 51.64l-95.17-49.78-95.17 49.78v99.57l95.17 49.79 95.17-49.79v-99.57z"/>
<path id="j" d="m192.67 51.64l-95.17-49.78-95.17 49.78v99.57l95.17 49.79 95.17-49.79v-99.57z"/>
<path id="e" d="m192.67 50.64l-95.17-49.78-95.17 49.78v99.57l95.17 49.79 95.17-49.79v-99.57z"/>
<path id="c" d="m192.67 50.64l-95.17-49.78-95.17 49.78v99.57l95.17 49.79 95.17-49.79v-99.57z"/>
<path id="n" d="m138.63 54.2l0.51 0.06 0.51 0.07 0.49 0.1 0.49 0.11 0.48 0.13 0.47 0.14 0.46 0.15 0.46 0.18 0.44 0.18 0.44 0.2 0.42 0.21 0.41 0.23 0.41 0.24 0.39 0.25 0.38 0.26 0.72 0.56 0.34 0.3 0.32 0.31 0.32 0.32 0.58 0.66 0.27 0.35 0.25 0.36 0.24 0.36 0.22 0.38 0.2 0.38 0.18 0.39 0.17 0.39 0.15 0.41 0.13 0.41 0.11 0.42 0.1 0.42 0.07 0.43 0.05 0.43 0.03 0.44 0.02 0.44v25.8l-0.01 0.1v0.08l-0.01 0.09-0.06 0.25-0.06 0.17-0.03 0.08-0.04 0.07-0.04 0.09-0.14 0.21-0.05 0.07-0.18 0.2-0.07 0.06-0.06 0.06-0.07 0.06-0.08 0.05-0.07 0.06-0.08 0.05-0.08 0.04-0.09 0.05-0.08 0.04-0.09 0.04-0.27 0.1-0.09 0.03-0.2 0.05-0.2 0.03-0.2 0.02-0.11 0.01h-0.21l-0.2-0.02-0.11-0.01-0.2-0.03-0.09-0.03-0.1-0.02-0.09-0.03-0.1-0.03-0.18-0.07-0.08-0.04-0.09-0.04-0.08-0.05-0.08-0.04-0.08-0.05-0.07-0.06-0.08-0.05-0.14-0.12-0.06-0.06-0.18-0.2-0.05-0.07-0.1-0.15-0.05-0.06-0.04-0.09-0.03-0.07-0.04-0.08-0.03-0.08-0.02-0.09-0.03-0.08-0.01-0.08-0.02-0.09-0.01-0.09-0.01-0.08v-15.14h-97.14v62.36l0.01 0.27 0.02 0.26 0.03 0.26 0.04 0.26 0.12 0.5 0.08 0.25 0.09 0.24 0.1 0.24 0.11 0.23 0.26 0.45 0.14 0.22 0.15 0.22 0.16 0.21 0.17 0.2 0.18 0.2 0.19 0.19 0.2 0.19 0.2 0.17 0.21 0.18 0.22 0.16 0.23 0.16 0.23 0.15 0.25 0.14 0.24 0.13 0.26 0.14 0.26 0.11 0.27 0.11 0.27 0.1 0.28 0.1 0.28 0.09 0.58 0.14 0.6 0.1 0.3 0.03 0.31 0.04h0.31l0.32 0.01h81.8l0.32-0.01h0.31l0.62-0.07 0.3-0.05 0.29-0.05 0.3-0.07 0.28-0.07 0.29-0.09 0.28-0.1 0.27-0.1 0.26-0.11 0.27-0.11 0.5-0.27 0.24-0.14 0.23-0.15 0.23-0.16 0.22-0.16 0.42-0.35 0.38-0.38 0.18-0.2 0.17-0.2 0.16-0.21 0.15-0.22 0.28-0.44 0.12-0.23 0.11-0.23 0.1-0.24 0.09-0.24 0.08-0.25 0.07-0.25 0.05-0.25 0.05-0.26 0.03-0.26 0.02-0.26v-13.26l0.02-0.18 0.02-0.08 0.01-0.08 0.03-0.09 0.02-0.08 0.03-0.08 0.04-0.08 0.03-0.08 0.04-0.08 0.1-0.14 0.05-0.08 0.05-0.06 0.18-0.2 0.06-0.06 0.14-0.12 0.08-0.06 0.07-0.05 0.08-0.05 0.08-0.04 0.08-0.05 0.09-0.04 0.08-0.05 0.18-0.06 0.1-0.04 0.09-0.02 0.1-0.03 0.09-0.02 0.2-0.03 0.11-0.01 0.1-0.02h0.42l0.1 0.02 0.1 0.01 0.2 0.03 0.2 0.05 0.09 0.02 0.27 0.1 0.09 0.05 0.08 0.04 0.09 0.05 0.08 0.04 0.08 0.05 0.07 0.05 0.08 0.06 0.07 0.06 0.06 0.06 0.07 0.06 0.18 0.2 0.05 0.06 0.05 0.08 0.05 0.07 0.04 0.07 0.08 0.16 0.09 0.24 0.06 0.25 0.01 0.09v0.09l0.01 0.09v12.9l-0.02 0.44-0.03 0.44-0.05 0.43-0.07 0.43-0.1 0.43-0.11 0.42-0.13 0.41-0.15 0.4-0.17 0.39-0.18 0.39-0.2 0.38-0.22 0.38-0.24 0.37-0.25 0.35-0.27 0.35-0.58 0.67-0.32 0.32-0.32 0.31-0.34 0.29-0.72 0.56-0.38 0.27-0.39 0.25-0.82 0.46-0.42 0.22-0.44 0.19-0.44 0.18-0.46 0.18-0.46 0.15-0.47 0.14-0.48 0.13-0.49 0.12-0.49 0.09-0.51 0.07-0.51 0.06-0.51 0.05-0.52 0.03h-82.86l-0.52-0.03-0.51-0.05-0.51-0.06-0.5-0.07-0.5-0.09-0.48-0.12-0.48-0.13-0.48-0.14-0.46-0.15-0.9-0.36-0.43-0.19-0.43-0.22-0.41-0.23-0.4-0.23-0.39-0.25-0.38-0.27-0.37-0.28-0.35-0.28-0.34-0.29-0.33-0.31-0.31-0.32-0.3-0.34-0.29-0.33-0.52-0.7-0.23-0.37-0.22-0.38-0.21-0.38-0.18-0.39-0.17-0.39-0.15-0.4-0.13-0.41-0.11-0.42-0.09-0.43-0.08-0.43-0.05-0.43-0.03-0.44-0.01-0.44v-73.12l0.01-0.44 0.03-0.44 0.05-0.43 0.08-0.43 0.09-0.42 0.11-0.42 0.13-0.41 0.15-0.41 0.17-0.39 0.18-0.39 0.21-0.38 0.22-0.38 0.23-0.36 0.26-0.36 0.26-0.35 0.29-0.33 0.3-0.33 0.31-0.32 0.33-0.31 0.34-0.3 0.35-0.28 0.37-0.28 0.38-0.26 0.39-0.25 0.4-0.24 0.41-0.23 0.43-0.21 0.43-0.2 0.9-0.36 0.46-0.15 0.48-0.14 0.48-0.13 0.48-0.11 0.5-0.1 0.5-0.07 0.51-0.06 0.51-0.04 0.52-0.04h82.86l0.52 0.04 0.51 0.04zm-83.68 4.23l-0.31 0.01-0.31 0.03-0.3 0.03-0.3 0.05-0.3 0.06-0.58 0.14-0.56 0.18-0.27 0.1-0.27 0.11-0.52 0.25-0.24 0.13-0.25 0.14-0.23 0.15-0.23 0.16-0.22 0.17-0.21 0.17-0.4 0.37-0.19 0.19-0.18 0.19-0.17 0.2-0.16 0.21-0.15 0.22-0.14 0.22-0.26 0.45-0.11 0.23-0.1 0.25-0.09 0.24-0.08 0.24-0.12 0.5-0.04 0.26-0.03 0.26-0.02 0.26-0.01 0.27v6.45h97.14v-6.72l-0.02-0.26-0.03-0.26-0.05-0.26-0.05-0.25-0.07-0.25-0.08-0.24-0.09-0.24-0.1-0.25-0.11-0.23-0.12-0.23-0.28-0.44-0.15-0.22-0.16-0.21-0.17-0.2-0.18-0.19-0.38-0.38-0.21-0.18-0.21-0.17-0.22-0.17-0.23-0.16-0.23-0.15-0.24-0.14-0.5-0.26-0.27-0.12-0.26-0.11-0.27-0.1-0.28-0.09-0.29-0.09-0.28-0.07-0.3-0.07-0.29-0.06-0.3-0.05-0.62-0.06-0.31-0.01-0.32-0.01h-81.8l-0.32 0.01z"/>
<path id="f" d="m78.97 68.77c1.85 0 3.35-1.5 3.35-3.35s-1.5-3.35-3.35-3.35-3.35 1.5-3.35 3.35 1.5 3.35 3.35 3.35z"/>
<path id="b" d="m87.44 68.77c1.85 0 3.35-1.5 3.35-3.35s-1.5-3.35-3.35-3.35-3.35 1.5-3.35 3.35 1.5 3.35 3.35 3.35z"/>
<path id="k" d="m97.5 68.77c1.85 0 3.35-1.5 3.35-3.35s-1.5-3.35-3.35-3.35-3.35 1.5-3.35 3.35 1.5 3.35 3.35 3.35z"/>
<path id="i" d="m126.94 112.26c0.39 4.94 4.82 8.65 10.31 8.65 5.8 0 10.33-4.1 10.33-9.33 0-4.87-3.2-7.97-9.52-9.22-0.07-0.01-0.68-0.13-0.76-0.15-4.53-0.89-5.21-2.32-5.21-3.08 0-1.23 2.06-3.11 5.18-3.1 3.05 0 5.06 1.75 5.17 3 0.13 1.71 1.36 3 2.81 2.81 1.42-0.17 2.46-1.69 2.32-3.39-0.39-4.94-4.82-8.65-10.31-8.65-5.8 0-10.34 4.1-10.34 9.33 0 4.88 3.22 7.97 9.55 9.22 0.03-0.21 0.17-1.24 0.41-3.08 0.21 1.94 0.33 3.01 0.35 3.22 4.29 0.86 5.19 2.16 5.19 3.09 0 1.23-2.06 3.11-5.17 3.11-3.06 0-5.07-1.76-5.18-3.01-0.13-1.72-1.37-3.03-2.81-2.81-1.42 0.17-2.46 1.69-2.32 3.39z"/>
<path id="m" d="m168.56 91.05c-0.45 0.61-2.66 3.65-6.63 9.13-3.99-5.48-6.19-8.52-6.64-9.13-1-1.38-2.89-1.66-4.22-0.62-1.34 1.04-1.6 2.98-0.61 4.35 0.52 0.71 3.08 4.23 7.7 10.59-4.61 6.34-7.17 9.86-7.69 10.56-1 1.38-0.73 3.33 0.61 4.36 0.54 0.42 1.17 0.62 1.79 0.62 0.92 0 1.83-0.43 2.42-1.24 0.45-0.61 2.66-3.65 6.64-9.12 3.97 5.47 6.18 8.51 6.62 9.12 0.59 0.81 1.5 1.24 2.41 1.24 0.64 0 1.27-0.2 1.81-0.62 1.34-1.03 1.61-2.98 0.6-4.36-0.5-0.7-3.07-4.22-7.68-10.56 4.61-6.36 7.18-9.88 7.69-10.59 1-1.37 0.73-3.31-0.6-4.35-1.34-1.03-3.23-0.76-4.22 0.62z"/>
<path id="a" d="m111.69 111.58c0-1.72-1.27-3.11-2.84-3.11-1.56 0-2.83 1.39-2.83 3.11 0 5.14 3.82 9.33 8.51 9.33s8.51-4.19 8.51-9.33v-18.67c0-1.72-1.27-3.11-2.83-3.11-1.57 0-2.84 1.39-2.84 3.11v18.67c0 1.72-1.27 3.11-2.84 3.11s-2.84-1.39-2.84-3.11z"/>
</defs>
<use fill="#000000" fill-opacity="0" xlink:href="#o"/>
<use fill-opacity="0" stroke="#000000" stroke-opacity="0" xlink:href="#o"/>
<use fill="#000000" fill-opacity="0" xlink:href="#l"/>
<use fill-opacity="0" stroke="#000000" stroke-opacity="0" xlink:href="#l"/>
<use fill="#000000" fill-opacity="0" xlink:href="#g"/>
<use fill-opacity="0" stroke="#000000" stroke-opacity="0" xlink:href="#g"/>
<use fill="#000000" fill-opacity="0" xlink:href="#d"/>
<use fill-opacity="0" stroke="#000000" stroke-opacity="0" xlink:href="#d"/>
<use fill="#000000" fill-opacity="0" xlink:href="#h"/>
<use fill-opacity="0" stroke="#000000" stroke-opacity="0" xlink:href="#h"/>
<use fill="#000000" fill-opacity="0" xlink:href="#j"/>
<use fill-opacity="0" stroke="#000000" stroke-opacity="0" xlink:href="#j"/>
<use fill="#000000" fill-opacity="0" xlink:href="#e"/>
<use fill-opacity="0" stroke="#000000" stroke-opacity="0" xlink:href="#e"/>
<use fill="#000000" fill-opacity="0" xlink:href="#c"/>
<use fill-opacity="0" stroke="#00c7fc" xlink:href="#c"/>
<use fill="#000000" xlink:href="#n"/>
<use fill-opacity="0" stroke="#000000" stroke-opacity="0" xlink:href="#n"/>
<use fill="#000000" xlink:href="#f"/>
<use fill-opacity="0" stroke="#000000" stroke-opacity="0" xlink:href="#f"/>
<use fill="#000000" xlink:href="#b"/>
<use fill-opacity="0" stroke="#000000" stroke-opacity="0" xlink:href="#b"/>
<use fill="#000000" xlink:href="#k"/>
<use fill-opacity="0" stroke="#000000" stroke-opacity="0" xlink:href="#k"/>
<use fill="#000000" xlink:href="#i"/>
<use fill-opacity="0" stroke="#000000" stroke-opacity="0" xlink:href="#i"/>
<use fill="#000000" xlink:href="#m"/>
<use fill-opacity="0" stroke="#000000" stroke-opacity="0" xlink:href="#m"/>
<use fill="#000000" xlink:href="#a"/>
<use fill-opacity="0" stroke="#000000" stroke-opacity="0" xlink:href="#a"/>
</svg>

<?xml version="1.0" encoding="UTF-8" standalone="no"?>
<!DOCTYPE svg PUBLIC "-//W3C//DTD SVG 1.1//EN" "http://www.w3.org/Graphics/SVG/1.1/DTD/svg11.dtd">
<svg version="1.1" xmlns="http://www.w3.org/2000/svg" xmlns:xlink="http://www.w3.org/1999/xlink" preserveAspectRatio="xMidYMid meet" viewBox="0 0 195 202" width="195" height="202"><defs><path d="M193.4 51.64L98.23 1.86L3.06 51.64L3.06 151.21L98.23 201L193.4 151.21L193.4 51.64Z" id="a1GiYKae"></path><path d="M193.4 51.64L98.23 1.86L3.06 51.64L3.06 151.21L98.23 201L193.4 151.21L193.4 51.64Z" id="aLZKPoMDd"></path><path d="M193.4 51.64L98.23 1.86L3.06 51.64L3.06 151.21L98.23 201L193.4 151.21L193.4 51.64Z" id="b1sluqVpyQ"></path><path d="M193.4 51.64L98.23 1.86L3.06 51.64L3.06 151.21L98.23 201L193.4 151.21L193.4 51.64Z" id="h8tgGVIIt"></path><path d="M192.67 51.64L97.5 1.86L2.33 51.64L2.33 151.21L97.5 201L192.67 151.21L192.67 51.64Z" id="b1n1vM0FnE"></path><path d="M192.67 51.64L97.5 1.86L2.33 51.64L2.33 151.21L97.5 201L192.67 151.21L192.67 51.64Z" id="agNpE5MQ2"></path><path d="M192.67 50.64L97.5 0.86L2.33 50.64L2.33 150.21L97.5 200L192.67 150.21L192.67 50.64Z" id="c5R1YqzRCn"></path><path d="M192.67 50.64L97.5 0.86L2.33 50.64L2.33 150.21L97.5 200L192.67 150.21L192.67 50.64Z" id="i1NBxvxG7u"></path><path d="M138.63 54.2L139.14 54.26L139.65 54.33L140.14 54.43L140.63 54.54L141.11 54.67L141.58 54.81L142.04 54.96L142.5 55.14L142.94 55.32L143.38 55.52L143.8 55.73L144.21 55.96L144.62 56.2L145.01 56.45L145.39 56.71L146.11 57.27L146.45 57.57L146.77 57.88L147.09 58.2L147.67 58.86L147.94 59.21L148.19 59.57L148.43 59.93L148.65 60.31L148.85 60.69L149.03 61.08L149.2 61.47L149.35 61.88L149.48 62.29L149.59 62.71L149.69 63.13L149.76 63.56L149.81 63.99L149.84 64.43L149.86 64.87L149.86 90.67L149.85 90.77L149.85 90.85L149.84 90.94L149.78 91.19L149.72 91.36L149.69 91.44L149.65 91.51L149.61 91.6L149.47 91.81L149.42 91.88L149.24 92.08L149.17 92.14L149.11 92.2L149.04 92.26L148.96 92.31L148.89 92.37L148.81 92.42L148.73 92.46L148.64 92.51L148.56 92.55L148.47 92.59L148.2 92.69L148.11 92.72L147.91 92.77L147.71 92.8L147.51 92.82L147.4 92.83L147.19 92.83L146.99 92.81L146.88 92.8L146.68 92.77L146.59 92.74L146.49 92.72L146.4 92.69L146.3 92.66L146.12 92.59L146.04 92.55L145.95 92.51L145.87 92.46L145.79 92.42L145.71 92.37L145.64 92.31L145.56 92.26L145.42 92.14L145.36 92.08L145.18 91.88L145.13 91.81L145.03 91.66L144.98 91.6L144.94 91.51L144.91 91.44L144.87 91.36L144.84 91.28L144.82 91.19L144.79 91.11L144.78 91.03L144.76 90.94L144.75 90.85L144.74 90.77L144.74 75.63L47.6 75.63L47.6 137.99L47.61 138.26L47.63 138.52L47.66 138.78L47.7 139.04L47.82 139.54L47.9 139.79L47.99 140.03L48.09 140.27L48.2 140.5L48.46 140.95L48.6 141.17L48.75 141.39L48.91 141.6L49.08 141.8L49.26 142L49.45 142.19L49.65 142.38L49.85 142.55L50.06 142.73L50.28 142.89L50.51 143.05L50.74 143.2L50.99 143.34L51.23 143.47L51.49 143.61L51.75 143.72L52.02 143.83L52.29 143.93L52.57 144.03L52.85 144.12L53.43 144.26L54.03 144.36L54.33 144.39L54.64 144.43L54.95 144.43L55.27 144.44L137.07 144.44L137.39 144.43L137.7 144.43L138.32 144.36L138.62 144.31L138.91 144.26L139.21 144.19L139.49 144.12L139.78 144.03L140.06 143.93L140.33 143.83L140.59 143.72L140.86 143.61L141.36 143.34L141.6 143.2L141.83 143.05L142.06 142.89L142.28 142.73L142.7 142.38L143.08 142L143.26 141.8L143.43 141.6L143.59 141.39L143.74 141.17L144.02 140.73L144.14 140.5L144.25 140.27L144.35 140.03L144.44 139.79L144.52 139.54L144.59 139.29L144.64 139.04L144.69 138.78L144.72 138.52L144.74 138.26L144.74 125L144.76 124.82L144.78 124.74L144.79 124.66L144.82 124.57L144.84 124.49L144.87 124.41L144.91 124.33L144.94 124.25L144.98 124.17L145.08 124.03L145.13 123.95L145.18 123.89L145.36 123.69L145.42 123.63L145.56 123.51L145.64 123.45L145.71 123.4L145.79 123.35L145.87 123.31L145.95 123.26L146.04 123.22L146.12 123.17L146.3 123.11L146.4 123.07L146.49 123.05L146.59 123.02L146.68 123L146.88 122.97L146.99 122.96L147.09 122.94L147.51 122.94L147.61 122.96L147.71 122.97L147.91 123L148.11 123.05L148.2 123.07L148.47 123.17L148.56 123.22L148.64 123.26L148.73 123.31L148.81 123.35L148.89 123.4L148.96 123.45L149.04 123.51L149.11 123.57L149.17 123.63L149.24 123.69L149.42 123.89L149.47 123.95L149.52 124.03L149.57 124.1L149.61 124.17L149.69 124.33L149.78 124.57L149.84 124.82L149.85 124.91L149.85 125L149.86 125.09L149.86 137.99L149.84 138.43L149.81 138.87L149.76 139.3L149.69 139.73L149.59 140.16L149.48 140.58L149.35 140.99L149.2 141.39L149.03 141.78L148.85 142.17L148.65 142.55L148.43 142.93L148.19 143.3L147.94 143.65L147.67 144L147.09 144.67L146.77 144.99L146.45 145.3L146.11 145.59L145.39 146.15L145.01 146.42L144.62 146.67L143.8 147.13L143.38 147.35L142.94 147.54L142.5 147.72L142.04 147.9L141.58 148.05L141.11 148.19L140.63 148.32L140.14 148.44L139.65 148.53L139.14 148.6L138.63 148.66L138.12 148.71L137.6 148.74L54.74 148.74L54.22 148.71L53.71 148.66L53.2 148.6L52.7 148.53L52.2 148.44L51.72 148.32L51.24 148.19L50.76 148.05L50.3 147.9L49.4 147.54L48.97 147.35L48.54 147.13L48.13 146.9L47.73 146.67L47.34 146.42L46.96 146.15L46.59 145.87L46.24 145.59L45.9 145.3L45.57 144.99L45.26 144.67L44.96 144.33L44.67 144L44.15 143.3L43.92 142.93L43.7 142.55L43.49 142.17L43.31 141.78L43.14 141.39L42.99 140.99L42.86 140.58L42.75 140.16L42.66 139.73L42.58 139.3L42.53 138.87L42.5 138.43L42.49 137.99L42.49 64.87L42.5 64.43L42.53 63.99L42.58 63.56L42.66 63.13L42.75 62.71L42.86 62.29L42.99 61.88L43.14 61.47L43.31 61.08L43.49 60.69L43.7 60.31L43.92 59.93L44.15 59.57L44.41 59.21L44.67 58.86L44.96 58.53L45.26 58.2L45.57 57.88L45.9 57.57L46.24 57.27L46.59 56.99L46.96 56.71L47.34 56.45L47.73 56.2L48.13 55.96L48.54 55.73L48.97 55.52L49.4 55.32L50.3 54.96L50.76 54.81L51.24 54.67L51.72 54.54L52.2 54.43L52.7 54.33L53.2 54.26L53.71 54.2L54.22 54.16L54.74 54.12L137.6 54.12L138.12 54.16L138.63 54.2ZM54.95 58.43L54.64 58.44L54.33 58.47L54.03 58.5L53.73 58.55L53.43 58.61L52.85 58.75L52.29 58.93L52.02 59.03L51.75 59.14L51.23 59.39L50.99 59.52L50.74 59.66L50.51 59.81L50.28 59.97L50.06 60.14L49.85 60.31L49.45 60.68L49.26 60.87L49.08 61.06L48.91 61.26L48.75 61.47L48.6 61.69L48.46 61.91L48.2 62.36L48.09 62.59L47.99 62.84L47.9 63.08L47.82 63.32L47.7 63.82L47.66 64.08L47.63 64.34L47.61 64.6L47.6 64.87L47.6 71.32L144.74 71.32L144.74 64.6L144.72 64.34L144.69 64.08L144.64 63.82L144.59 63.57L144.52 63.32L144.44 63.08L144.35 62.84L144.25 62.59L144.14 62.36L144.02 62.13L143.74 61.69L143.59 61.47L143.43 61.26L143.26 61.06L143.08 60.87L142.7 60.49L142.49 60.31L142.28 60.14L142.06 59.97L141.83 59.81L141.6 59.66L141.36 59.52L140.86 59.26L140.59 59.14L140.33 59.03L140.06 58.93L139.78 58.84L139.49 58.75L139.21 58.68L138.91 58.61L138.62 58.55L138.32 58.5L137.7 58.44L137.39 58.43L137.07 58.42L55.27 58.42L54.95 58.43Z" id="a2oqBAtzxI"></path><path d="M78.97 68.77C80.82 68.77 82.32 67.27 82.32 65.42C82.32 63.57 80.82 62.07 78.97 62.07C77.12 62.07 75.62 63.57 75.62 65.42C75.62 67.27 77.12 68.77 78.97 68.77Z" id="b5NjqG07g6"></path><path d="M87.44 68.77C89.29 68.77 90.79 67.27 90.79 65.42C90.79 63.57 89.29 62.07 87.44 62.07C85.59 62.07 84.09 63.57 84.09 65.42C84.09 67.27 85.59 68.77 87.44 68.77Z" id="i5uuFplPfk"></path><path d="M97.5 68.77C99.35 68.77 100.85 67.27 100.85 65.42C100.85 63.57 99.35 62.07 97.5 62.07C95.65 62.07 94.15 63.57 94.15 65.42C94.15 67.27 95.65 68.77 97.5 68.77Z" id="ag5WI26G3"></path><path d="M126.94 112.26C127.33 117.2 131.76 120.91 137.25 120.91C143.05 120.91 147.58 116.81 147.58 111.58C147.58 106.71 144.38 103.61 138.06 102.36C137.99 102.35 137.38 102.23 137.3 102.21C132.77 101.32 132.09 99.89 132.09 99.13C132.09 97.9 134.15 96.02 137.27 96.03C140.32 96.03 142.33 97.78 142.44 99.03C142.57 100.74 143.8 102.03 145.25 101.84C146.67 101.67 147.71 100.15 147.57 98.45C147.18 93.51 142.75 89.8 137.26 89.8C131.46 89.8 126.92 93.9 126.92 99.13C126.92 104.01 130.14 107.1 136.47 108.35C136.5 108.14 136.64 107.11 136.88 105.27C137.09 107.21 137.21 108.28 137.23 108.49C141.52 109.35 142.42 110.65 142.42 111.58C142.42 112.81 140.36 114.69 137.25 114.69C134.19 114.69 132.18 112.93 132.07 111.68C131.94 109.96 130.7 108.65 129.26 108.87C127.84 109.04 126.8 110.56 126.94 112.26Z" id="au1E23YQp"></path><path d="M168.56 91.05C168.11 91.66 165.9 94.7 161.93 100.18C157.94 94.7 155.74 91.66 155.29 91.05C154.29 89.67 152.4 89.39 151.07 90.43C149.73 91.47 149.47 93.41 150.46 94.78C150.98 95.49 153.54 99.01 158.16 105.37C153.55 111.71 150.99 115.23 150.47 115.93C149.47 117.31 149.74 119.26 151.08 120.29C151.62 120.71 152.25 120.91 152.87 120.91C153.79 120.91 154.7 120.48 155.29 119.67C155.74 119.06 157.95 116.02 161.93 110.55C165.9 116.02 168.11 119.06 168.55 119.67C169.14 120.48 170.05 120.91 170.96 120.91C171.6 120.91 172.23 120.71 172.77 120.29C174.11 119.26 174.38 117.31 173.37 115.93C172.87 115.23 170.3 111.71 165.69 105.37C170.3 99.01 172.87 95.49 173.38 94.78C174.38 93.41 174.11 91.47 172.78 90.43C171.44 89.4 169.55 89.67 168.56 91.05Z" id="a3T941GCu"></path><path d="M111.69 111.58C111.69 109.86 110.42 108.47 108.85 108.47C107.29 108.47 106.02 109.86 106.02 111.58C106.02 116.72 109.84 120.91 114.53 120.91C119.22 120.91 123.04 116.72 123.04 111.58C123.04 109.71 123.04 94.78 123.04 92.91C123.04 91.19 121.77 89.8 120.21 89.8C118.64 89.8 117.37 91.19 117.37 92.91C117.37 96.64 117.37 109.71 117.37 111.58C117.37 113.3 116.1 114.69 114.53 114.69C112.96 114.69 111.69 113.3 111.69 111.58Z" id="m9k6RkP7G"></path></defs><g><g><g><use xlink:href="#a1GiYKae" opacity="1" fill="#000000" fill-opacity="0"></use><g><use xlink:href="#a1GiYKae" opacity="1" fill-opacity="0" stroke="#000000" stroke-width="1" stroke-opacity="0"></use></g></g><g><use xlink:href="#aLZKPoMDd" opacity="1" fill="#000000" fill-opacity="0"></use><g><use xlink:href="#aLZKPoMDd" opacity="1" fill-opacity="0" stroke="#000000" stroke-width="1" stroke-opacity="0"></use></g></g><g><use xlink:href="#b1sluqVpyQ" opacity="1" fill="#000000" fill-opacity="0"></use><g><use xlink:href="#b1sluqVpyQ" opacity="1" fill-opacity="0" stroke="#000000" stroke-width="1" stroke-opacity="0"></use></g></g><g><use xlink:href="#h8tgGVIIt" opacity="1" fill="#000000" fill-opacity="0"></use><g><use xlink:href="#h8tgGVIIt" opacity="1" fill-opacity="0" stroke="#000000" stroke-width="1" stroke-opacity="0"></use></g></g><g><use xlink:href="#b1n1vM0FnE" opacity="1" fill="#000000" fill-opacity="0"></use><g><use xlink:href="#b1n1vM0FnE" opacity="1" fill-opacity="0" stroke="#000000" stroke-width="1" stroke-opacity="0"></use></g></g><g><use xlink:href="#agNpE5MQ2" opacity="1" fill="#000000" fill-opacity="0"></use><g><use xlink:href="#agNpE5MQ2" opacity="1" fill-opacity="0" stroke="#000000" stroke-width="1" stroke-opacity="0"></use></g></g><g><use xlink:href="#c5R1YqzRCn" opacity="1" fill="#000000" fill-opacity="0"></use><g><use xlink:href="#c5R1YqzRCn" opacity="1" fill-opacity="0" stroke="#000000" stroke-width="1" stroke-opacity="0"></use></g></g><g><use xlink:href="#i1NBxvxG7u" opacity="1" fill="#000000" fill-opacity="0"></use><g><use xlink:href="#i1NBxvxG7u" opacity="1" fill-opacity="0" stroke="#00c7fc" stroke-width="1" stroke-opacity="1"></use></g></g><g><use xlink:href="#a2oqBAtzxI" opacity="1" fill="#000000" fill-opacity="1"></use><g><use xlink:href="#a2oqBAtzxI" opacity="1" fill-opacity="0" stroke="#000000" stroke-width="1" stroke-opacity="0"></use></g></g><g><use xlink:href="#b5NjqG07g6" opacity="1" fill="#000000" fill-opacity="1"></use><g><use xlink:href="#b5NjqG07g6" opacity="1" fill-opacity="0" stroke="#000000" stroke-width="1" stroke-opacity="0"></use></g></g><g><use xlink:href="#i5uuFplPfk" opacity="1" fill="#000000" fill-opacity="1"></use><g><use xlink:href="#i5uuFplPfk" opacity="1" fill-opacity="0" stroke="#000000" stroke-width="1" stroke-opacity="0"></use></g></g><g><use xlink:href="#ag5WI26G3" opacity="1" fill="#000000" fill-opacity="1"></use><g><use xlink:href="#ag5WI26G3" opacity="1" fill-opacity="0" stroke="#000000" stroke-width="1" stroke-opacity="0"></use></g></g><g><use xlink:href="#au1E23YQp" opacity="1" fill="#000000" fill-opacity="1"></use><g><use xlink:href="#au1E23YQp" opacity="1" fill-opacity="0" stroke="#000000" stroke-width="1" stroke-opacity="0"></use></g></g><g><use xlink:href="#a3T941GCu" opacity="1" fill="#000000" fill-opacity="1"></use><g><use xlink:href="#a3T941GCu" opacity="1" fill-opacity="0" stroke="#000000" stroke-width="1" stroke-opacity="0"></use></g></g><g><use xlink:href="#m9k6RkP7G" opacity="1" fill="#000000" fill-opacity="1"></use><g><use xlink:href="#m9k6RkP7G" opacity="1" fill-opacity="0" stroke="#000000" stroke-width="1" stroke-opacity="0"></use></g></g></g></g></svg>
